images/main/slider-arrow-right.svg

<svg width="38" height="38" fill="none" xmlns="http://www.w3.org/2000/svg"><rect x=".99994" y="1" width="36" height="36" rx="18" fill="#FCFCFC" fill-opacity=".3"/><path fill-rule="evenodd" clip-rule="evenodd" d="M18.1352 13.8648c-.2597-.2597-.6807-.2597-.9404 0-.2597.2597-.2597.6807 0 .9404l4.2012 4.2013-4.2013 4.2013c-.2597.2597-.2597.6808 0 .9405.2597.2597.6808.2597.9405 0l4.6687-4.6688c.0009-.0009.0019-.0018.0028-.0028.2597-.2597.2597-.6807 0-.9404l-4.6715-4.6715Z" fill="#FCFCFC"/><rect x=".99994" y="1" width="36" height="36" rx="18" stroke="#FCFCFC" stroke-width="2"/></svg>

<svg width="38" height="38" viewBox="0 0 38 38" fill="none" xmlns="http://www.w3.org/2000/svg">
<rect x="0.999939" y="1" width="36" height="36" rx="18" fill="#FCFCFC" fill-opacity="0.3"/>
<path fill-rule="evenodd" clip-rule="evenodd" d="M18.1352 13.8648C17.8755 13.6051 17.4545 13.6051 17.1948 13.8648C16.9351 14.1245 16.9351 14.5455 17.1948 14.8052L21.396 19.0065L17.1947 23.2078C16.935 23.4675 16.935 23.8886 17.1947 24.1483C17.4544 24.408 17.8755 24.408 18.1352 24.1483L22.8039 19.4795C22.8048 19.4786 22.8058 19.4777 22.8067 19.4767C23.0664 19.217 23.0664 18.796 22.8067 18.5363L18.1352 13.8648Z" fill="#FCFCFC"/>
<rect x="0.999939" y="1" width="36" height="36" rx="18" stroke="#FCFCFC" stroke-width="2"/>
</svg>
